!!!OTL@@DE: Als mein sch&ouml;nster Tag begann
!!!ONB: Russische Volkweise
!!!ODT: 1809
!!!OMD: M&auml;ssig bewegt
!!!ONB: Russisches Volkslied &Uuml;bertragen von Ch. A. Tiedge
!!!LDT: 1809
!!!OCL: Erk, Ludwig
!!!GCO: Deutscher Liederschatz, Band 3
**kern	**kern	**kern
*staff2	*staff1	*staff1
*Ipiano	*Ipiano	*Ivox
=1-	=1-	=1-
*clefF4	*clefG2	*clefG2
*k[]	*k[]	*k[]
*C:	*C:	*C:
*met(C)	*met(C)	*met(C)
*M4/4	*M4/4	*M4/4
*MM112	*MM112	*MM112
4.c\	4.cc\	4.cc\
8G\	8g/	8g/
4A\	4a/	4a/
4E\	4e/	4e/
=2	=2	=2
4F\	4f/	4f/
4G\	4g/	4g/
8.C/L	4c/	4c/
16C/Jk	.	.
8.E\L	4r	4r
16G\Jk	.	.
=3	=3	=3
4.c\	4.cc\	4.cc\
8G\	8g/	8g/
4A\	4a/	4a/
4E\	4e/	4e/
=4	=4	=4
4F\	4f/	4f/
4G\	4g/	4g/
4C/	4c/	4c/
4r	4r	4r
=5	=5	=5
8C\L	4g/	4g/
8G\	.	.
8E\	4g/	4g/
8G\J	.	.
8C\L	8g/L	8g/L
8G\	8cc/J	8cc/J
8E\	8b\L	8b\L
8G\J	8cc\J	8cc\J
=6	=6	=6
8C\L	4.a/	4.a/
8A\	.	.
8F\	.	.
8A\J	8b\	8b\
8C\L	8dd\L	8dd\L
8A\	8cc\J	8cc\J
8F\	8b/L	8b/L
8A\J	8a/J	8a/J
=7	=7	=7
8C\L	4g/	4g/
8G\	.	.
8E\	4g/	4g/
8G\J	.	.
8C\L	8g/L	8g/L
8G\	8cc/J	8cc/J
8E\	8b\L	8b\L
8G\J	8cc\J	8cc\J
=8	=8	=8
8C\L	4.a/	4.a/
8A\	.	.
8F\	.	.
8A\J	8b\	8b\
8C\L	8dd\L	8dd\L
8A\	8cc\J	8cc\J
8F\	8b/L	8b/L
8A\J	8a/J	8a/J
=9	=9	=9
4C/	4.e/ 4.g/	4.g/
4E\	.	.
.	8e/ 8cc/	8cc/
4G\	4.e/ 4.cc/	4.cc/
4c\	.	.
.	8g\ 8ee\	8ee\
=10	=10	=10
4G\	8g/ 8ee/L	8ee/L
.	8f/ 8dd/J	8dd/J
4GG/	8e/ 8cc/L	8cc/L
.	8d/ 8b/J	8b/J
8C\L	4e/ 4cc/	4cc/
8c\	.	.
8G\	4r	4r
8E\J	.	.
=11	=11	=11
4C/	4.e/ 4.g/	4.g/
4E\	.	.
.	8e/ 8cc/	8cc/
4G\	4.e/ 4.cc/	4.cc/
4c\	.	.
.	8g\ 8ee\	8ee\
=12	=12	=12
4G\	8g/ 8ee/L	8ee/L
.	8f/ 8dd/J	8dd/J
4GG/	8e/ 8cc/L	8cc/L
.	8d/ 8b/J	8b/J
4C/	4e/ 4cc/	4cc/
4CC/	4r	4r
==	==	==
*-	*-	*-
!!!ENC: Craig Stuart Sapp
!!!END: 2004/05/20/
!!!EFL: 404/600
